!!!SOCIAL_FUNCTION: miscellaneous dance songs
!!!PDT:	1943
!!!LING_GROUP: Muskogean
!!!LANG: Non-Tone
Specific Region: Oklahoma, California, Mississippi, Louisiana, Texas, Alabama
!!!REG: Southeast
!!!COM: Anon.
!!!OTL: Terrapin Dance Song (b)
!!!ODT: <1933//
!!!MPN: Robert Henry
!!!MLC: Philadelphia, Mississippi, United States of America
!! Song was recorded in January 1933.
!!!AGN: monody
!!!AMT: irregular
!!!RWG: Transcribed pitches, durations, and meters are only approximate.
**kern	**recip
*ICvox	*ICidio
*Imale	*Isticks
*clefF4	*
*k[b-d-e-a]	*
*M3/4	*M3/4
*MM72	*MM72
*[A,B,A]	*[A,B,A]
*>A	*>A
=!|:1	=!|:1
16c	8^
16c	.
8c	8
16B-	8^
8A-	.
.	8
(16B-	.
4A-)	8^
.	8
=2	=2
16A-	8^
8F	.
.	8
16F	.
8F	8^
16E-	8
16D-	.
8C	8^
16C	8
16r	.
=3	=3
16F	8^
16F	.
8F	8
16F	.
.	8^
8F	.
.	8
(16B-	.
4A-)	8^
.	8
=4	=4
16A-	8^
8F	.
.	8
16F	.
8F	8^
16E-	8
16D-	.
8C	8^
16C	8
16r	.
!! Fine
*>B
=5	=5
16c	8^
16c	.
8c	8
16B-	.
.	8^
8A-	.
.	8
(16B-	.
4A-)	8^
.	8
=6	=6
16A-	8^
8F	.
.	8
16F	.
8F	8^
16E-	8
16D-	.
8C	8^
16C	8
16r	.
*M2/4	*M2/4
=7	=7
16F	8^
16F	.
8F	8
16F	8^
16F	.
8F	8
=8	=8
16F	8^
8F	.
.	8
(16B-	.
4A-)	8^
.	8
*M3/4	*M3/4
=9	=9
16A-	8^
8F	.
.	8
16F	.
8F	8^
16E-	8
16D-	.
8C	8^
16C	8
16r	.
==:|!	==:|!
*-	*-
!!!CNT: Choctaw
!!!TXO: Choctaw
!!!OCY: United States
!!!OCL: Frances Densmore
!!!YOR: Frances Densmore, "Choctaw Music"
!!!YOR: Bulletin 136, page 173, No. 58
!!!PPR: Smithsonian Institution, Bureau of American Ethnology
!!!PPR: Government Printing Office
!!!PDT: 1943
!!!PPP: Washington, DC, United States of America
!!!YEC: Electronic Copyright 2000 David Huron
!!!YER: August 2000
!!!YEN: United States of America
!!!ENC: David Huron
!!!RDT: August 30, 2000
!!!EEV: Release 1.0
!!!AIN: sticks, vox
